packages/katcn/src/icons/svg/quotes-solid.svg

<svg width="24" height="25" viewBox="0 0 24 25" fill="none" xmlns="http://www.w3.org/2000/svg">
<path d="M7.56863 4.29602H4.43137C2.56863 4.29602 1 5.89602 1 7.79602V11.096C1 12.996 2.56863 14.596 4.43137 14.596H6.78431C7.56863 14.596 8.35294 14.296 9.03922 13.896V15.996C9.03922 17.296 8.05882 18.296 6.78431 18.296H5.21569C4.62745 18.296 4.23529 18.696 4.23529 19.296C4.23529 19.896 4.62745 20.296 5.21569 20.296H6.78431C9.13725 20.296 11 18.396 11 15.996V10.296V7.79602C11 5.89602 9.43137 4.29602 7.56863 4.29602Z" fill="black"/>
<path d="M19.6638 4.29602H16.4299C14.5679 4.29602 13 5.89602 13 7.79602V11.096C13 12.996 14.5679 14.596 16.4299 14.596H18.7818C19.5658 14.596 20.3497 14.296 21.0357 13.896V15.996C21.0357 17.296 20.0557 18.296 18.7818 18.296H17.2138C16.6259 18.296 16.2339 18.696 16.2339 19.296C16.2339 19.896 16.6259 20.296 17.2138 20.296H18.7818C21.1337 20.296 22.9956 18.396 22.9956 15.996V10.296V7.79602C23.0936 5.89602 21.5257 4.29602 19.6638 4.29602Z" fill="black"/>
</svg>

<svg xmlns="http://www.w3.org/2000/svg" fill="none" viewBox="0 0 24 25"><path fill="#000" d="M7.569 4.296H4.43c-1.86 0-3.43 1.6-3.43 3.5v3.3c0 1.9 1.569 3.5 3.431 3.5h2.353c.785 0 1.569-.3 2.255-.7v2.1c0 1.3-.98 2.3-2.255 2.3H5.216c-.589 0-.98.4-.98 1s.391 1 .98 1h1.568c2.353 0 4.216-1.9 4.216-4.3v-8.2c0-1.9-1.569-3.5-3.431-3.5m12.095 0H16.43c-1.862 0-3.43 1.6-3.43 3.5v3.3c0 1.9 1.568 3.5 3.43 3.5h2.352c.784 0 1.568-.3 2.254-.7v2.1c0 1.3-.98 2.3-2.254 2.3h-1.568c-.588 0-.98.4-.98 1s.392 1 .98 1h1.568c2.352 0 4.214-1.9 4.214-4.3v-8.2c.098-1.9-1.47-3.5-3.332-3.5"/></svg>
